;PYCAM-META-DATA: Filename: C:\Users\Shea\rx5808-pro-diversity\enclosure\enclosure-lines2.dxf
;PYCAM-META-DATA: Timestamp: 2015-07-30 10:37:28.955000
;PYCAM-META-DATA: Version: 0.5.1.1
;Estimated machine time: 2 minutes
G40 (disable tool radius compensation)
G49 (disable tool length compensation)
G80 (cancel modal motion)
G54 (select coordinate system 1)
G90 (disable incremental moves)
G21 (metric)
G61 (exact path mode)
F200.00000
S1000.00000
;PYCAM_TOOLPATH_SETTINGS: START
;[Bounds]
;maxz = -2.0
;maxx = 54.1614789355
;maxy = 94.9196933
;minx = -4.2385210645
;miny = -7.9017903
;minz = -2.0
;
;[Tool]
;torus_radius = 0.25
;speed = 1000.0
;shape = CylindricalCutter
;tool_radius = 0.8
;feedrate = 200.0
;
;[Process]
;generator = EngraveCutter
;pocketing_type = none
;engrave_offset = 0.8
;milling_style = conventional
;path_direction = x
;step_down = 1.0
;postprocessor = SimpleCutter
;overlap_percent = 0
;material_allowance = 0.0
;
;PYCAM_TOOLPATH_SETTINGS: END
T4 M6
G0 Z3.0000
M3 (start spindle)
G04 P3 (wait for 3 seconds)
 X38.8756 Y21.6328
G1 Z-2.0000
 X38.6843 Y21.5536
 X38.4790 Y21.5265
 X38.2738 Y21.5536
 X38.0825 Y21.6328
 X37.9182 Y21.7588
 X37.7922 Y21.9231
 X37.7130 Y22.1144
 X37.6859 Y22.3196
 X37.7130 Y22.5249
 X37.7922 Y22.7162
 X37.9182 Y22.8804
 X38.0825 Y23.0065
 X38.2738 Y23.0857
 X38.4790 Y23.1127
 X38.6843 Y23.0857
 X38.8756 Y23.0065
 X39.0398 Y22.8804
 X39.1659 Y22.7162
 X39.2451 Y22.5249
 X39.2721 Y22.3196
 X39.2451 Y22.1144
 X39.1659 Y21.9231
 X39.0398 Y21.7588
 X38.8756 Y21.6328
G0 Z3.0000
 X25.5053 Y68.7003
G1 Z-2.0000
 X25.3141 Y68.6211
 X25.1088 Y68.5941
 X24.9035 Y68.6211
 X24.7122 Y68.7003
 X24.5480 Y68.8264
 X24.4219 Y68.9906
 X24.3427 Y69.1819
 X24.3157 Y69.3872
 X24.3427 Y69.5924
 X24.4219 Y69.7837
 X24.5480 Y69.9480
 X24.7122 Y70.0740
 X24.9035 Y70.1532
 X25.1088 Y70.1803
 X25.3141 Y70.1532
 X25.5053 Y70.0740
 X25.6696 Y69.9480
 X25.7956 Y69.7837
 X25.8749 Y69.5924
 X25.9019 Y69.3872
 X25.8749 Y69.1819
 X25.7956 Y68.9906
 X25.6696 Y68.8264
 X25.5053 Y68.7003
G0 Z3.0000
 X32.4585 Y87.0461
G1 Z-2.0000
 X31.8270 Y86.6241
 X31.2560 Y86.1234
 X30.7553 Y85.5524
 X30.3333 Y84.9209
 X29.9974 Y84.2398
 X29.7533 Y83.5206
 X29.6051 Y82.7757
 X29.5615 Y82.1096
 Y77.9478
 X20.3615
 Y82.1096
 X20.3178 Y82.7757
 X20.1697 Y83.5206
 X19.9255 Y84.2398
 X19.5896 Y84.9209
 X19.1677 Y85.5524
 X18.6669 Y86.1234
 X18.0960 Y86.6241
 X17.4645 Y87.0461
 X16.7833 Y87.3820
 X16.0642 Y87.6261
 X15.3193 Y87.7742
 X14.6531 Y87.8179
 X4.8698
 X4.2036 Y87.7742
 X3.4588 Y87.6261
 X2.7396 Y87.3820
 X2.0585 Y87.0461
 X1.4270 Y86.6241
 X0.8560 Y86.1234
 X0.3553 Y85.5524
 X-0.0667 Y84.9209
 X-0.4026 Y84.2398
 X-0.6467 Y83.5206
 X-0.7949 Y82.7757
 X-0.8385 Y82.1096
 Y4.9083
 X-0.7949 Y4.2422
 X-0.6467 Y3.4973
 X-0.4026 Y2.7781
 X-0.0667 Y2.0970
 X0.3553 Y1.4655
 X0.8560 Y0.8945
 X1.4270 Y0.3938
 X2.0585 Y-0.0282
 X2.7396 Y-0.3641
 X3.4588 Y-0.6082
 X4.2036 Y-0.7563
 X4.8698 Y-0.8000
 X45.0531
 X45.7193 Y-0.7563
 X46.4642 Y-0.6082
 X47.1833 Y-0.3641
 X47.8645 Y-0.0282
 X48.4960 Y0.3938
 X49.0669 Y0.8945
 X49.5677 Y1.4655
 X49.9896 Y2.0970
 X50.3255 Y2.7781
 X50.5697 Y3.4973
 X50.7178 Y4.2422
 X50.7615 Y4.9083
 Y82.1096
 X50.7178 Y82.7757
 X50.5697 Y83.5206
 X50.3255 Y84.2398
 X49.9896 Y84.9209
 X49.5677 Y85.5524
 X49.0669 Y86.1234
 X48.4960 Y86.6241
 X47.8645 Y87.0461
 X47.1833 Y87.3820
 X46.4642 Y87.6261
 X45.7193 Y87.7742
 X45.0531 Y87.8179
 X35.2698
 X34.6036 Y87.7742
 X33.8588 Y87.6261
 X33.1396 Y87.3820
 X32.4585 Y87.0461
G0 Z3.0000
M5 (stop spindle)
G04 P3 (wait for 3 seconds)
G0 Z3.0000
M2 (end program)
